assets/regular/pen-nib-straight.svg

<svg id="Flat" xmlns="http://www.w3.org/2000/svg" viewBox="0 0 256 256">
  <path d="M218.56445,123.88965,192.00586,70.13428V32.00293a16.01833,16.01833,0,0,0-16-16h-96a16.01833,16.01833,0,0,0-16,16V70.13428L37.44727,123.89062a15.94359,15.94359,0,0,0,1.45947,16.57325l82.65674,112.28222c.03344.04541.07324.08448.10742.1294q.17945.23217.37475.45019c.06812.07666.13526.15381.2063.227.14844.15381.3042.29932.46436.44092.05566.04932.10791.10254.165.1499a7.993,7.993,0,0,0,.6914.51709c.04248.02832.08765.05225.13062.07959.2019.12891.40869.25.62231.36133.072.03711.14576.07031.21875.10547.19165.0918.38623.17725.5857.2544.08105.03125.16211.06054.24414.08935.198.06934.39966.1294.60449.18311.08423.022.16748.04541.25244.06494.21265.04785.4292.085.64819.11572.07764.01123.15406.02686.23218.03565a7.60985,7.60985,0,0,0,1.78858,0c.07788-.00879.15429-.02442.23193-.03565.21924-.03076.436-.06787.64917-.11621.08447-.019.167-.04248.25049-.06445.20556-.05371.408-.11426.60669-.1836q.12195-.04248.24219-.08838c.20068-.07763.39624-.16357.58886-.25634.072-.03467.14453-.0669.21533-.10352.21705-.11279.427-.23584.63208-.36719.03956-.0249.08106-.04687.12037-.07275a8.00256,8.00256,0,0,0,.6958-.521c.052-.04345.09961-.09228.15063-.13672.166-.146.32715-.29687.48047-.45605.06689-.06982.13037-.14258.19482-.21436.13526-.15136.2649-.30664.38868-.46777.032-.042.06933-.07861.10058-.12109L217.104,140.46387A15.94327,15.94327,0,0,0,218.56445,123.88965ZM176.00586,32.00293v32h-96v-32Zm-48,112a12,12,0,1,1,12-12A12.01343,12.01343,0,0,1,128.00586,144.00293Zm8,79.63867V158.832a28,28,0,1,0-16,0V223.6416L51.7915,130.97852,76.97656,80.00293h102.0586l25.18457,50.97461Z"/>
</svg>

<svg xmlns="http://www.w3.org/2000/svg" viewBox="0 0 256 256"><path d="M218.6,123.9,192,70.1V32a16,16,0,0,0-16-16H80A16,16,0,0,0,64,32V70.1L37.4,123.9a16.1,16.1,0,0,0,1.5,16.6l82.7,112.2a7.9,7.9,0,0,0,12.8,0l82.7-112.2A16.1,16.1,0,0,0,218.6,123.9ZM176,32V64H80V32ZM128,144a12,12,0,1,1,12-12A12,12,0,0,1,128,144Zm8,79.6V158.8a28,28,0,1,0-16,0v64.8L51.8,131,77,80H179l25.2,51Z"/></svg>
